X: 1941
T: Uncle Adam Ebert's
B: australian traditional tunes wiki
M:2/4
L:1/16
R: Step Tune
Q: 1/4=100
K:D
V:1 
|:"D"A2d2 f2e2|f2a2- a2dc|d2d2 d2cB|A6c2|"A"A2e2 e2f2|g2f2e4|a3g f2e2|1"D"d6cB:|2"D"d6||
|:fg|"D"a2aa a2b2|a2f2 d2f2|"A"e2ee e2a2|"D"f2e2 d2fg|"D"a2aa a2b2 |a2f2 d2ff-|f2e2 "A"B2c2|1d6:|2"D"d6||
|:Bc|"D"d2A2 "A"e2A2|"D"f2A2 "A"e2A2|"A"c2B2 c2B2|A6Bc|"D"d2A2 "A"e2A2|"D"f2A2 "A"e2A2|a3g f2e2|"D"d6:|
% abcbook-tune_id 6342d5bec66ebb84c284c11e


% abcbook-boost 0
% abcbook-tablature 
% abcbook-transpose 
% abcbook-lastupdated 1665324489165
% abcbook-soundfonts 
% abcbook-repeats 1
% NFF Book 2016

